dde/common/icon_overview.svg

<?xml version="1.0" encoding="iso-8859-1"?>
<!-- Generator: Adobe Illustrator 18.0.0, SVG Export Plug-In . SVG Version: 6.00 Build 0)  -->
<!DOCTYPE svg PUBLIC "-//W3C//DTD SVG 1.1//EN" "http://www.w3.org/Graphics/SVG/1.1/DTD/svg11.dtd">
<svg version="1.1" id="&#x56FE;&#x5C42;_1" xmlns="http://www.w3.org/2000/svg" xmlns:xlink="http://www.w3.org/1999/xlink" x="0px"
	 y="0px" viewBox="0 0 64 64" enable-background="new 0 0 64 64" xml:space="preserve">
<g>
	<path fill="#B5B5B6" d="M51,14H41v23.75l-4.937-6l-5.063,6V14H14v-3c0-0.551,0.449-1,1-1h36c0.552,0,1-0.448,1-1s-0.448-1-1-1H15
		c-1.654,0-3,1.346-3,3v42c0,1.654,1.346,3,3,3h34c1.654,0,3-1.346,3-3V15C52,14.448,51.552,14,51,14z"/>
	<rect x="31" y="12" fill="#B5B5B6" width="10" height="2"/>
</g>
</svg>

<?xml version="1.0" encoding="UTF-8"?>
<svg width="64px" height="64px" viewBox="0 0 64 64" version="1.1" xmlns="http://www.w3.org/2000/svg" xmlns:xlink="http://www.w3.org/1999/xlink">
    <!-- Generator: Sketch 42 (36781) - http://www.bohemiancoding.com/sketch -->
    <title>概述-64px</title>
    <desc>Created with Sketch.</desc>
    <defs></defs>
    <g id="Page-1" stroke="none" stroke-width="1" fill="none" fill-rule="evenodd">
        <g id="概述-64px" fill="#B5B5B6">
            <path d="M51,14 L41,14 L41,37.75 L36.063,31.75 L31,37.75 L31,14 L14,14 L14,11 C14,10.449 14.449,10 15,10 L51,10 C51.552,10 52,9.552 52,9 C52,8.448 51.552,8 51,8 L15,8 C13.346,8 12,9.346 12,11 L12,53 C12,54.654 13.346,56 15,56 L49,56 C50.654,56 52,54.654 52,53 L52,15 C52,14.448 51.552,14 51,14 Z" id="Fill-1"></path>
            <rect id="Rectangle-14" x="31" y="12" width="10" height="2"></rect>
        </g>
    </g>
</svg>
